symbols-de/shields/motorway_5x3.svg

<?xml version="1.0" encoding="UTF-8" standalone="no"?>
<svg
   xmlns:dc="http://purl.org/dc/elements/1.1/"
   xmlns:cc="http://creativecommons.org/ns#"
   xmlns:rdf="http://www.w3.org/1999/02/22-rdf-syntax-ns#"
   xmlns:svg="http://www.w3.org/2000/svg"
   xmlns="http://www.w3.org/2000/svg"
   xmlns:sodipodi="http://sodipodi.sourceforge.net/DTD/sodipodi-0.dtd"
   xmlns:inkscape="http://www.inkscape.org/namespaces/inkscape"
   width="100%"
   height="100%"
   viewBox="0 0 39.0 33.0"
   id="svg2"
   version="1.1"
   inkscape:version="0.91 r13725"
   sodipodi:docname="autobahn_5x3.svg">
  <metadata
     id="metadata9">
    <rdf:RDF>
      <cc:Work
         rdf:about="">
        <dc:format>image/svg+xml</dc:format>
        <dc:type
           rdf:resource="http://purl.org/dc/dcmitype/StillImage" />
        <dc:title></dc:title>
      </cc:Work>
    </rdf:RDF>
  </metadata>
  <defs
     id="defs7" />
  <sodipodi:namedview
     pagecolor="#ffffff"
     bordercolor="#666666"
     borderopacity="1"
     objecttolerance="10"
     gridtolerance="10"
     guidetolerance="10"
     inkscape:pageopacity="0"
     inkscape:pageshadow="2"
     inkscape:window-width="1232"
     inkscape:window-height="800"
     id="namedview5"
     showgrid="false"
     inkscape:zoom="7.1515152"
     inkscape:cx="19.5"
     inkscape:cy="16.5"
     inkscape:window-x="367"
     inkscape:window-y="106"
     inkscape:window-maximized="0"
     inkscape:current-layer="svg2" />
  <path
     style="fill:#365eaf;fill-opacity:1;stroke:#0528a2;stroke-width:1;stroke-miterlimit:4;stroke-dasharray:none;stroke-opacity:1"
     d="m 19.5,0.4999991 c -0.2724,0 -0.408204,0.00326 -0.408204,0.011719 L 1.113732,2.2812491 C 0.705128,2.3660961 0.5,2.4943616 0.5,2.6640616 l 0,27.6718754 c 0,0.1697 0.20513,0.297962 0.613732,0.382812 l 17.978064,1.769531 c 0,0.0085 0.135807,0.01172 0.408204,0.01172 0.272401,0 0.408203,-0.0032 0.408203,-0.01172 l 17.978065,-1.769531 c 0.408604,-0.08485 0.524155,-0.224567 0.613732,-0.382812 0,-14.860404 0,-14.542796 0,-27.6718754 0,-0.1697 -0.205128,-0.2979652 -0.613732,-0.3828125 L 19.908203,0.5117178 c 0,-0.00846 -0.135806,-0.011719 -0.408203,-0.011719 z"
     id="path6"
     inkscape:connector-curvature="0"
     sodipodi:nodetypes="sccccccsccccccs" />
</svg>

<?xml version="1.0" encoding="UTF-8"?>
<svg xmlns="http://www.w3.org/2000/svg" xmlns:xlink="http://www.w3.org/1999/xlink" width="40pt" height="42pt" viewBox="0 0 40 42" version="1.1">
<g id="surface1">
<path style="fill-rule:nonzero;fill:rgb(21.176471%,36.862745%,68.627451%);fill-opacity:1;stroke-width:1;stroke-linecap:butt;stroke-linejoin:miter;stroke:rgb(1.960784%,15.686275%,63.529412%);stroke-opacity:1;stroke-miterlimit:4;" d="M 19.5 0.500279 C 19.225781 0.500279 19.09248 0.503348 19.09248 0.512556 L 1.112109 2.280413 C 0.70459 2.36635 0.498926 2.495257 0.498926 2.664062 L 0.498926 30.335938 C 0.498926 30.504743 0.70459 30.63365 1.112109 30.719587 L 19.09248 32.487444 C 19.09248 32.496652 19.225781 32.499721 19.5 32.499721 C 19.774219 32.499721 19.90752 32.496652 19.90752 32.487444 L 37.887891 30.719587 C 38.29541 30.63365 38.409668 30.495536 38.501074 30.335938 C 38.501074 15.474888 38.501074 15.794085 38.501074 2.664062 C 38.501074 2.495257 38.29541 2.36635 37.887891 2.280413 L 19.90752 0.512556 C 19.90752 0.503348 19.774219 0.500279 19.5 0.500279 Z M 19.5 0.500279 " transform="matrix(1.025641,0,0,1.272727,0,0)"/>
</g>
</svg>
